X: 33714
T: Rapid Viennese, The
R: waltz
M: 3/4
K: Dmajor
F|B^A Bc de|f2 d2 B2|g2e2c2|f2d2B2|B^A Bc de|f2d2B2|
^Ac F2 F2|F4 F2|B^A Bc de|f2d2B2|g2e2c2|f2d2B2|Ac gf ed|
ce ^A2 A2|Bg fe dc|B4A2|d2 de fg|a2f2d2|ce A2 A2|A4F2|
GB E2 E2|CE AG FE|FA D2 D2|D4 A2|d2 de fg|a2f2d2|ce A2A2|
GB E2E2|CE ^A=A cA|e2c2A2|df e2c2|d4||f2|g2 ge cg|
fa d2 d2|ce Ac ge|fa d2d2|g2ge cg|fa d2d2|ce ag ec|d2:|
dc|B^A Bc dB|Af fA fA|Ge eG eG|Fd dF dA|
B^A Bc dB|Ag gA fd|Aa ge cA|d4:|

